packages/kaspersky-hexa-ui-icons/src/iconsSVGs/48/Support.svg

<svg width="48" height="48" viewBox="0 0 48 48" fill="none" xmlns="http://www.w3.org/2000/svg">
<path fill-rule="evenodd" clip-rule="evenodd" d="M44.68 22V28C44.68 29.6569 43.3368 31 41.68 31H40.62C40.1109 35.5536 36.262 38.9978 31.68 39H27.4C27.0449 39.6151 26.3902 39.9957 25.68 40H23.68C22.5754 40 21.68 39.1046 21.68 38C21.68 36.8954 22.5754 36 23.68 36H25.68C26.3902 36.0043 27.0449 36.3849 27.4 37H31.68C33.1341 36.9997 34.5512 36.5413 35.73 35.69C37.5639 31.5277 38.5661 27.047 38.68 22.5C38.6759 21.8639 38.6258 21.2289 38.53 20.6L37.43 20.11C34.9362 19.0015 33.1795 16.6982 32.77 14H14.58C14.1705 16.6982 12.4138 19.0015 9.92 20.11L8.82 20.6C8.72752 21.2291 8.68073 21.8641 8.68 22.5C8.68 30.93 13.68 46 23.68 46C27.35 46 30.35 44 32.68 41C33.6843 40.9091 34.6707 40.6768 35.61 40.31C32.85 44.69 28.92 48 23.68 48C15.08 48 10 39.15 7.88 31C6.55208 30.9478 5.41678 30.0281 5.09 28.74L4.09 24.74C3.8651 23.8412 4.0681 22.8889 4.64 22.16C4.90538 21.8079 5.24733 21.5206 5.64 21.32V12C5.64568 9.37289 7.35979 7.05499 9.87 6.28C10.6772 2.61338 13.9256 0.00136685 17.68 0H43.68V4C43.6778 6.29947 42.8832 8.52792 41.43 10.31C41.5947 10.8583 41.679 11.4275 41.68 12V19C43.3368 19 44.68 20.3431 44.68 22Z"  fill="currentColor"/>
</svg>

<svg xmlns="http://www.w3.org/2000/svg" width="48" height="48" fill="none" viewBox="0 0 48 48"><path fill="currentColor" fill-rule="evenodd" d="M44.68 22v6c0 1.6569-1.3432 3-3 3h-1.06c-.5091 4.5536-4.358 7.9978-8.94 8H27.4a2 2 0 0 1-1.72 1h-2c-1.1046 0-2-.8954-2-2s.8954-2 2-2h2a2 2 0 0 1 1.72 1h4.28a6.92 6.92 0 0 0 4.05-1.31 34.88 34.88 0 0 0 2.95-13.19 13.2 13.2 0 0 0-.15-1.9l-1.1-.49A8 8 0 0 1 32.77 14H14.58a8 8 0 0 1-4.66 6.11l-1.1.49a13.2 13.2 0 0 0-.14 1.9c0 8.43 5 23.5 15 23.5 3.67 0 6.67-2 9-5a10.7 10.7 0 0 0 2.93-.69C32.85 44.69 28.92 48 23.68 48c-8.6 0-13.68-8.85-15.8-17a3 3 0 0 1-2.79-2.26l-1-4a3 3 0 0 1 .55-2.58 2.91 2.91 0 0 1 1-.84V12c.0057-2.6271 1.7198-4.945 4.23-5.72.8072-3.6666 4.0556-6.2786 7.81-6.28h26v4a10 10 0 0 1-2.25 6.31 5.91 5.91 0 0 1 .25 1.69v7c1.6568 0 3 1.3431 3 3" clip-rule="evenodd"/></svg>
